X:1
T:12 New Songs by some of the best and best-known British composers
T:Truant Wings
T:To H.R.H. The Princess Louise (Marchioness of Lorne) 
T:12 New Songs
T:Frederic Hymen Cowen
T:4. Truant Wings
T:Harold Boulton 
T:Creative Commons copyright waiver (CC0 1.0 Universal)
T:Creative Commons copyright waiver (CC0 1.0 Universal)
T:Creative Commons copyright waiver (CC0 1.0 Universal)
T:Creative Commons copyright waiver (CC0 1.0 Universal)
T:Creative Commons copyright waiver (CC0 1.0 Universal)
T:Creative Commons copyright waiver (CC0 1.0 Universal)
T:Creative Commons copyright waiver (CC0 1.0 Universal)
T:Creative Commons copyright waiver (CC0 1.0 Universal)
C:Frederic Hymen Cowen
Z:Harold Boulton (also series editor)
Z:Creative Commons copyright waiver (CC0 1.0 Universal)
%%score 1 2
L:1/8
Q:1/4=160
M:6/8
K:G
V:1 treble nm="Voice"
V:2 bass nm="Piano"
V:1
"^Allegro vivace, ma non troppo""^NOTE to Transcriber and Reviewer\n:    Where there is no requirement to use both piano staves, you are recommended to\ninput the piano notes in the bass, and then move notes to the treble as needed using cross-staff notation (see example in mm.1-2 below). \nThat way you can put the dynamics and hairpins in the bass and move them above the staff so they match the IMSLP score layout. \nIf you put dynamic markings in the treble, you would need invisible rests in the bass to position the pedal marks and hairpins.\n(Many thanks to @mike320 for this tip!)\n" z6 | %1
w: |
 z6 | G3 (Bc) ^c | d3- d2 B | =c2 F G3- | G3 z2 z | G3 (Bc) ^c | d3-!<(! d2!<)! e | f2 ^c c3- | %9
w: |Come, swal- * low,|come, _ for|thee we wait;|_|Come, swal- * low,|come, _ for|thee we wait;|
 c3 z2 z | z6 | z6 | z6 | z6 | z6 | z6 | z6 | z6 | z6 | f6- | f6 |!f! g3 ^d2 f | e6 | z6 | z6 | %25
w: _||||||||||blue.|_|Come, swal- low,|come,|||
 z6 | z6 | z6 | z6 | z6 | z6 |!mf! G3 (Bc) ^c | d3- d2 B | =c2 F G3- | G3 z2 z | z6 | z6 | z6 | %38
w: ||||||Come, swal- * low,|come, _ for|thee we wait.|_||||
 z6 | z6 | z6 | B3- B2 E | =c2 d c2 B | A2 ^G A3- | A z D B2 A | A2 z z2 z | z6 | z6 | z6 | z6 | %50
w: |||* * the|thatch is warm be-|neath the sun;|_ Here tell of|love|||||
 z6 | z6 | z6 | c3- c2 z |"^dim." c3 B3 | B3 A3 | G6- | G3 z2 z | z6 | z6 | z6 | z6 | z6 | z6 | %64
w: |||come, _|come, for|thee we|wait:|_|||||||
 z6 | =f3 d3 |!>(! _e2!>)! A _B3- | B3 z2 _B | c2"^cresc." d _e2 d | c2 =B c2 z | z6 | z6 | z6 | %73
w: |per- fect|but for thee.|_ Ah!|wel- come, though thou|spee- dest late,||||
 z6 | z6 | z6 | z6 | (e3 B3) | e3 B2 =d | (c3 G3) | z2 c B2 c | B3 A3 | e6- | e2 z z3 | z6 | z6 | %86
w: ||||swal- low,|wel- come, o|swal- low,|for not in|vain we|wait,|_|||
 z6 | z6 | z6 | z6 | z6 |] %91
w: |||||
V:2
!p!!ped! (G,,/D,/ G,/[I:staff -1] B,/D/G/ B/G/D/B,/[I:staff +1] G,/D,/) | %1
 (G,,/D,/ G,/[I:staff -1] B,/D/G/ B/G/D/B,/[I:staff +1] G,/D,/) | z6 | z6!ped-up! | z6 | z6 | z6 | %7
 z6 | z6 | z6 | z6 | z6 | z6 | z6 | z6 | z6 | z6 | z6 | z6 | z6 | z6 | z6 | z6 | z6 | z6 | z6 | %26
 z6 | z6 | z6 | z6 | z6 | z6 | z6 | z6 | z6 | z6 | z6 | z6 | z6 | z6 | z6 | z6 | z6 | z6 | z6 | %45
 z6 | z6 | z6 | z6 | z6 | z6 | z6 | z6 | z6 | z6 | z6 | z6 | z6 | z6 | z6 | z6 | z6 | z6 | z6 | %64
 z6 | z6 | z6 | z6 | z6 | z6 | z6 | z6 | z6 | z6 | z6 | z6 | z6 | z6 | z6 | z6 | z6 | z6 | z6 | %83
 z6 | z6 | z6 | z6 | z6 | z6 | z6 | z6 |] %91

